X:44
T: WILHELM BIN ICH
N: E0032
O: Europa, Mitteleuropa, Deutschland
R: Helden - Sage, erzaehlendes Volks - Lied
M: 4/4
L: 1/8
K: C
G,2 | C2C2D2D2 | E2D
EF2E2 | D2D2C2
G,2 | C2C2D2D2 | E2D
EF2E2 | D2D2C4 | z2
G2G2G2 | G2F2E2D
E | F2E2D2C2 | D4z2
G,2 | C2E2D2C2 | B,2A,
G,A,2C2 | C2B,2C4 | z6

@@@ Tune index: 3694
